X: 56
T: The Whim of the Moment
R: march, reel
M: 2/4
L: 1/8
Z: 2012 John Chambers <jc:trillian.mit.edu>
B: Saml. Ann & Peter Thompson "Twenty Four Country Dances for the Year 1791", London 1791, p.28 #2
K: G
% - - - - - - - - - - - - - - - - - - - - - - - - -
|:\
D>FGA | B2BG | cABG | BGE2 |\
D>FGA | BcdB | ecAG | FAHG2 :|
eeeg | d2B2 | ccde | B2G2 |\
ABcA | BcdB | ecAG | FAFD "D.C."y |]
% - - - - - - - - Dance description - - - - - - - -
%%begintext align
%% Right Hands across left hands back again .|.
%% change sides & back again :|.
%% lead down the middle up again & cats off .|:
%% Allemande with both hands :|:
%%endtext

%%sep 1 1 500
%%sep 1 1 500
